X:9903
T:Lorne and June Johnston's Waltz
R:waltz
C:Bruce Osborne  --  Apr.20 1991
M:3/4
L:1/8
K:Bb
DE|:(3F2G2F2 D2 C2|B,3 B, DF|(3B2c2B2 A2 B2|G3 F G2|
FG AB cd|e4 ga|g3 f ^eg|f4 DE|
(3F2G2F2 D2 C2|B,3 B, DF|(3B2c2B2 A2 B2|G3 F G2|
FG AB cd|ec Ae cA|(3B2c2B2 F2 D2|[B,4 D4] DE:|
|:[D2B2] [D3B3] [FB]|[G2B2] [F2B2] [E2B2]|[D3B3] [Bf] [Bf][Bf]|[A4f4] CD|
E3 D EF|A3 B AG|FG FE DC|D3 C DF|
[D2B2] [D3B3] [FB]|[G2B2] [F2B2] [E2B2]|[D3B3] [Bf] [Bf][Bf]|[A4f4] CD|
E3 D EF|A3 B AG|FG AB cd|[D6 B6]:|


